X: 76
T: Red Horse Revel
P: piffero primo a0493
O: John Rice
%R: jig, march
F: http://ancients.sudburymuster.org/mus/ssp/pdf/garfieldF.pdf
Z: 2019 John Chambers <jc:trillian.mit.edu>
M: 6/8
L: 1/8
K: Em
B \
| d2d dBd | efg d3 | dBd efg | age d3 \
| d2d dBd | efg d3 | dBd efg | ecA G2 :|
|: B \
| ddd d2B | eee e3 | ccc c2A | ddd d3 \
| G2A B2d | efg d3 | dcB ABc | def g2 :|


